X:1
T:Title
%%score { ( 1 5 6 ) | ( 2 3 4 ) }
L:1/8
Q:1/4=69
M:4/4
K:G
V:1 treble nm="Grand Piano"
V:5 treble 
V:6 treble 
V:2 bass 
V:3 bass 
V:4 bass 
V:1
 [DB]3 D EGAG | [DB]2 [DB]6 | [Fd]3 c BAGF | [B,G]6 z2 | [EG]3 F GAGE | [B,D]2 G6 | %6
w: Charles~H.~Gabriel * * * * *||||||
 [GA]3 ^c [GB]AEB | [FA]6 z2 | [DB]4 z4 | [DB]2 [DB]4 Bc | z2 DD z e[Bd][Ac] | [GB]6 z2 | d6 z2 | %13
w: |||||||
 [Ee]2 [Ge]4 ee | d6 z2 | [B,DG]6 z2 |] %16
w: |||
V:2
 z2 z B, CE^DD | G,4 z4 | z2 z[K:treble] E DCB,C | G,,4- G,,G,,B,,D, | z2 z[K:treble] ^D EFEC | %5
 z2 B,6 | z2 z G z[K:treble] G^CG | D,6 z2 | [G,,G,]G,,G,,[G,,G,] [G,,G,]2 [G,,G,]2 | %9
 [G,,G,]2 [G,,G,]4[K:treble] GA | F6[K:bass][K:treble] z2 | [G,D]2 G,2 G,2 GA | B6 z2 | %13
 [C,C]2 [C,C]4[K:treble] cc | B6[K:bass] z2 | G,,6 z2 |] %16
V:3
 [G,,G,]8 | G,,4- G,,B,,D,G, | D,8[K:treble] | x8 | C,8[K:treble] | z4 z B,,D,G, | %6
 A,,4 A,,4[K:treble] | x8 | x8 | x6[K:treble] x2 | z2[K:bass] D,D, z[K:treble] c [D,D]2 | x8 | %12
 z2 G,G, G,[G,B,=F][G,B,F][G,B,F] | x6[K:treble] x2 | z2[K:bass] D,D, D,D,D,D, | x8 |] %16
V:4
 x8 | x8 | x3[K:treble] x5 | x8 | x3[K:treble] x5 | G,,6 z2 | x5[K:treble] x3 | x8 | x8 | %9
 x6[K:treble] x2 | z4[K:bass] D,2[K:treble] z2 | x8 | x8 | x6[K:treble] x2 | x2[K:bass] x6 | x8 |] %16
V:5
 x8 | x8 | x8 | x8 | x8 | x8 | x8 | x8 | z G,G,[^C_B] [D=B][B,G][=CA][Ec] | x8 | A6 z2 | %11
 z2 D2 D2 Bc | z2 DD DGAG | x8 | z2 DD D[DGB][CD][CDA] | x8 |] %16
V:6
 x8 | x8 | x8 | x8 | x8 | x8 | x8 | x8 | x8 | x8 | z4 D2 z2 | x8 | x8 | x8 | x8 | x8 |] %16

